src/components/Icon/assets/error-triangle-filled.svg

<svg width="24" height="24" viewBox="0 0 24 24" fill="none" xmlns="http://www.w3.org/2000/svg">
<path fill-rule="evenodd" clip-rule="evenodd" d="M12.0002 18.2804C11.2702 18.2804 10.6772 17.6884 10.6772 16.9584C10.6772 16.2274 11.2702 15.6354 12.0002 15.6354C12.7302 15.6354 13.3222 16.2274 13.3222 16.9584C13.3222 17.6884 12.7302 18.2804 12.0002 18.2804V18.2804ZM13.2132 6.0204L13.0812 14.0274H10.9192L10.7872 6.0204H13.2132ZM21.7372 17.0874L13.6822 3.1354C12.9342 1.8404 11.0652 1.8404 10.3182 3.1354L2.26319 17.0874C1.51619 18.3814 2.45019 20.0004 3.94519 20.0004H20.0552C21.5502 20.0004 22.4842 18.3814 21.7372 17.0874V17.0874Z" fill="#65676A"/>
</svg>

<svg xmlns="http://www.w3.org/2000/svg" width="24" height="24" viewBox="0 0 24 24">
    <path fill="#65676A" fill-rule="evenodd" d="M12 18.28c-.73 0-1.323-.592-1.323-1.322 0-.73.593-1.323 1.323-1.323s1.322.592 1.322 1.323c0 .73-.592 1.322-1.322 1.322zm1.213-12.26l-.132 8.007H10.92l-.132-8.007h2.426zm8.524 11.067L13.682 3.135c-.748-1.295-2.617-1.295-3.364 0L2.263 17.087C1.516 18.381 2.45 20 3.945 20h16.11c1.495 0 2.43-1.619 1.682-2.913z"/>
</svg>
